X:1008
T:Scale Navigation High G
O:Kevin Fraser
Z:Kevin Fraser
Q:1/4=120
K:HP
M:4/4
L:1/4
R:March
V:gstem=up stem=down
%%MIDI gracedivider 4
%%MIDI gchord
%%MIDI beatstring
[| g  G  g  B  |  g  c  g  d  |  g  e  g  f  |  g  A   g  a  |  a  g  A   g  |  f   g  e  g |  d  g  c  g  |  B  g   G  g  |]
w: g  G  g  B  |  g  c  g  d  |  g  e  g  f  |  g  A   g  a  |  a  g  A   g  |  f   g  e  g |  d  g  c  g  |  B  g   G  g 
w: di em di o  |  di o  di a  |  di e  di ve |  di en  di I  |  I  di en  di |  ve  di e  di|  a  di o  di |  o  di  em di :| 

